X: 1
T: the Sands of Murness
C: Frank Ronald Jamieson, Shetland
R: strathspey
S: handout from Barbara McOwen for 2021-1-7 BSFC zoom workshop
Z: 2021 John Chambers <jc:trillian.mit.edu>
D: Willie Hunter, Leaving Lerwick Harbour
D: Book 43 (Iain MacPhail and his Scottish Dance Band), track 11
M: 4/4
L: 1/8
K: A
E2 |\
"A"A2 G>A F>A E>A | "A"A>c e<a f>e c<A |\
"E7"B2 G>B E>B G>B | "B7"g>f e^d "E7"f>e =d<B |
"A"A2 G>A F>A E>A | "A"A>c e<a f>e c<A |\
"D"f>e d>c "BM"B>a g>f | "E7"e>d B<G "A"A2 |]
e2 |:\
"A"a>c' e<a c>e A<c | "A"E>A c<e a>g f>e |\
"E7"^d>e =d>e B>e g>f | "E7"(3efe (3dcB [1 "A"c2 "(E7)"(3efg :|[2 "A"A2 |]
